X:5
T:Kendal Waltz
S:Greg Stephens Collection
M:3/4
L:1/8
K:A
E2|A4c2|e4c2|e2d2B2|AG FE FG|A4c2|e4c2|Bc de fg|a4:|
|:e2|E3F G E|AG AE cE|B^A BE dB|cB cd ^de|
E3F G E|AG AB cA|af ^dB cd|e4:|
[2|]
%%vskip .5cm
